assets/icons/zoom/original.svg

<?xml version="1.0" encoding="UTF-8" standalone="no"?>
<svg viewBox="0 0 24 24" height="24" width="24" version="1.1" id="svg8" sodipodi:docname="original.svg" inkscape:version="1.1 (ce6663b3b7, 2021-05-25)"
   xmlns:inkscape="http://www.inkscape.org/namespaces/inkscape"
   xmlns:sodipodi="http://sodipodi.sourceforge.net/DTD/sodipodi-0.dtd"
   xmlns="http://www.w3.org/2000/svg"
   xmlns:svg="http://www.w3.org/2000/svg">
   <defs id="defs12" />
   <sodipodi:namedview id="namedview10" pagecolor="#ffffff" bordercolor="#666666" borderopacity="1.0" inkscape:pageshadow="2" inkscape:pageopacity="0.0" inkscape:pagecheckerboard="0" showgrid="true" inkscape:snap-page="true" inkscape:zoom="28" inkscape:cx="14.375" inkscape:cy="13.321429" inkscape:window-width="1920" inkscape:window-height="1043" inkscape:window-x="1920" inkscape:window-y="0" inkscape:window-maximized="1" inkscape:current-layer="svg8">
      <inkscape:grid type="xygrid" id="grid823" />
      <inkscape:grid type="xygrid" id="grid825" dotted="true" spacingx="0.5" spacingy="0.5" empspacing="10" />
   </sodipodi:namedview>
   <path style="color:#000000;fill:#808080;fill-opacity:1;-inkscape-stroke:none" d="m 7.5,4 c -0.999999,0 -1.7937715,-0.036708 -2.4726563,0.3027344 -0.3394423,0.1697212 -0.6300052,0.4624336 -0.796875,0.8378906 -0.1668697,0.375457 -0.2304687,0.8177089 -0.2304687,1.359375 v 11 c 0,0.541666 0.063599,0.983918 0.2304687,1.359375 0.1668698,0.375457 0.4574327,0.668169 0.796875,0.837891 0.6788848,0.339442 1.4726573,0.302734 2.4726563,0.302734 h 9 c 0.999999,0 1.793771,0.03671 2.472656,-0.302734 0.339443,-0.169722 0.630005,-0.462434 0.796875,-0.837891 0.16687,-0.375457 0.230469,-0.817709 0.230469,-1.359375 v -11 c 0,-0.5416661 -0.0636,-0.983918 -0.230469,-1.359375 -0.16687,-0.375457 -0.457432,-0.6681694 -0.796875,-0.8378906 -0.678885,-0.3394424 -1.472657,-0.3027344 -2.472656,-0.3027344 z m 0,1 h 9 c 0.999999,0 1.70623,0.036708 2.027344,0.1972656 0.160557,0.080279 0.244995,0.162567 0.328125,0.3496094 0.08313,0.1870424 0.144531,0.4947921 0.144531,0.953125 v 11 c 0,0.458333 -0.0614,0.766083 -0.144531,0.953125 -0.08313,0.187042 -0.167568,0.269331 -0.328125,0.349609 -0.321114,0.160557 -1.027345,0.197266 -2.027344,0.197266 h -9 c -0.999999,0 -1.7062295,-0.03671 -2.0273438,-0.197266 -0.1605571,-0.08028 -0.244995,-0.162567 -0.328125,-0.349609 -0.08313,-0.187042 -0.1445312,-0.494792 -0.1445312,-0.953125 v -11 c 0,-0.4583329 0.061401,-0.7660826 0.1445312,-0.953125 0.08313,-0.1870424 0.1675679,-0.2693308 0.328125,-0.3496094 0.3211143,-0.1605571 1.0273448,-0.1972656 2.0273438,-0.1972656 z" id="path860" sodipodi:nodetypes="ssssssssssssssssssssssssssssssssss" />
   <path id="rect1426" style="color:#000000;fill:#808080;fill-rule:evenodd;stroke-linecap:round;-inkscape-stroke:none;fill-opacity:1" d="M 12 8 L 12 8.3261719 C 11.138904 9.4031162 10.302152 10.017018 9.5097656 10 L 9.4902344 11 C 10.435024 11.020292 11.256485 10.544464 12 9.8222656 L 12 16 L 13 16 L 13 8 L 12 8 z " />
</svg>

<svg height="24" width="24" xmlns="http://www.w3.org/2000/svg"><path style="color:#000;fill:gray;fill-opacity:1;-inkscape-stroke:none" d="M7.5 4c-1 0-1.794-.037-2.473.303-.34.17-.63.462-.797.838C4.064 5.516 4 5.958 4 6.5v11c0 .542.064.984.23 1.36.167.375.458.668.797.837.68.34 1.473.303 2.473.303h9c1 0 1.794.037 2.473-.303.34-.17.63-.462.797-.838.166-.375.23-.817.23-1.359v-11c0-.542-.064-.984-.23-1.36a1.72 1.72 0 0 0-.797-.837C18.293 3.963 17.5 4 16.5 4zm0 1h9c1 0 1.706.037 2.027.197.16.08.245.163.328.35.084.187.145.495.145.953v11c0 .458-.061.766-.145.953a.615.615 0 0 1-.328.35c-.32.16-1.027.197-2.027.197h-9c-1 0-1.706-.037-2.027-.197a.615.615 0 0 1-.328-.35C5.06 18.266 5 17.958 5 17.5v-11c0-.458.061-.766.145-.953a.615.615 0 0 1 .328-.35C5.793 5.037 6.5 5 7.5 5z"/><path style="color:#000;fill:gray;stroke-linecap:round;-inkscape-stroke:none;fill-opacity:1" d="M12 8v.326c-.861 1.077-1.698 1.691-2.49 1.674l-.02 1c.945.02 1.766-.456 2.51-1.178V16h1V8h-1z"/></svg>
